Origami/64x64/apps/deadbeef.svg

<svg width="64" height="64" version="1" xmlns="http://www.w3.org/2000/svg">
 <path d="m57.876991 31.998906a4.5998879 4.3944839 0 0 1 -2.175841 2.808653l-21.398409 11.801026-21.402409 11.801025a4.5998879 4.3944839 0 0 1 -6.8985316 -3.800873v2.000039a4.5998879 4.3944839 0 0 0 6.8969316 3.804072l21.402409-11.800225 21.400409-11.806226a4.5998879 4.3944839 0 0 0 2.176041 -4.808091z" style="opacity:.2"/>
 <path d="m10.70649 4.0009518a4.5998879 4.3944839 0 0 0 -4.7064896 4.3926839v47.216902a4.5998879 4.3944839 0 0 0 6.8995316 3.802472l21.400409-11.802225 21.400409-11.804226a4.5998879 4.3944839 0 0 0 0 -7.611145l-21.400409-11.804826-21.400409-11.804025a4.5998879 4.3944839 0 0 0 -2.193642 -0.5870112z" style="fill:#4f4f4f"/>
 <path d="m16.000191 16.999389v16.000306l9.000172-6.000115 9.000172 6.000115-18.000344 12.000229v4.000076l24.000459-16.000305-12.000229-8.000153-12.00023-8.000153z" style="fill-rule:evenodd;opacity:.2"/>
 <path d="m16.000191 15.999181v16.000306l9.000172-6.000115 9.000172 6.000115-18.000344 12.000229v4.000076l24.000459-16.000305-12.000229-8.000153-12.00023-8.000153z" style="fill-rule:evenodd;fill:#79ce24"/>
 <path d="m10.707031 4.0019531a4.5998879 4.3944839 0 0 0 -4.707031 4.390625v1.0019531a4.5998879 4.3944839 0 0 1 4.707031 -4.390625 4.5998879 4.3944839 0 0 1 2.191407 0.5859376l21.402343 11.804687 21.400391 11.800781a4.5998879 4.3944839 0 0 1 2.261719 3.314454 4.5998879 4.3944839 0 0 0 -2.261719 -4.314454l-21.400391-11.800781-21.402343-11.80664a4.5998879 4.3944839 0 0 0 -2.191407 -0.5859375z" style="fill:#ffffff;opacity:.1"/>
</svg>

<svg xmlns="http://www.w3.org/2000/svg" width="64" height="64" version="1">
 <path style="opacity:0.2" d="M 57.876991,31.998906 A 4.5998879,4.3944839 0 0 1 55.70115,34.807559 L 34.302741,46.608585 12.900332,58.40961 A 4.5998879,4.3944839 0 0 1 6.0018004,54.608737 l 0,2.000039 a 4.5998879,4.3944839 0 0 0 6.8969316,3.804072 L 34.301141,48.612623 55.70155,36.806397 a 4.5998879,4.3944839 0 0 0 2.176041,-4.808091 z"/>
 <path style="fill:#4f4f4f" d="M 10.70649,4.0009518 A 4.5998879,4.3944839 0 0 0 6.0000004,8.3936357 l 0,47.2169023 A 4.5998879,4.3944839 0 0 0 12.899532,59.41301 L 34.299941,47.610785 55.70035,35.806559 a 4.5998879,4.3944839 0 0 0 0,-7.611145 L 34.299941,16.390588 12.899532,4.586563 A 4.5998879,4.3944839 0 0 0 10.70589,3.9995518 Z"/>
 <path style="opacity:0.2;fill-rule:evenodd" d="m 16.000191,16.999389 0,16.000306 9.000172,-6.000115 9.000172,6.000115 -18.000344,12.000229 0,4.000076 L 40.00065,32.999695 28.000421,24.999542 16.000191,16.999389 Z"/>
 <path style="fill:#79ce24;fill-rule:evenodd" d="m 16.000191,15.999181 0,16.000306 9.000172,-6.000115 9.000172,6.000115 -18.000344,12.000229 0,4.000076 L 40.00065,31.999487 28.000421,23.999334 16.000191,15.999181 Z"/>
 <path style="opacity:0.1;fill:#ffffff" d="M 10.707031 4.0019531 A 4.5998879 4.3944839 0 0 0 6 8.3925781 L 6 9.3945312 A 4.5998879 4.3944839 0 0 1 10.707031 5.0039062 A 4.5998879 4.3944839 0 0 1 12.898438 5.5898438 L 34.300781 17.394531 L 55.701172 29.195312 A 4.5998879 4.3944839 0 0 1 57.962891 32.509766 A 4.5998879 4.3944839 0 0 0 55.701172 28.195312 L 34.300781 16.394531 L 12.898438 4.5878906 A 4.5998879 4.3944839 0 0 0 10.707031 4.0019531 z"/>
</svg>
